X:1
T: Lord MacPherson of Drumochter
C:
R:Jig
Q:180
K:Bm
M:6/8
L:1/16
f2|B4B2 B2d2e2|f2d2B2 B2c2d2|e2c2A2 ca3e2|f2e2d2 c2B2A2|B4B2 B2d2e2|f2e2B2 B2c2d2|c2A2a2 f2e2c2|B6B4f2|
B4B2 B2d2e2|f2d2B2 B2c2d2|e2c2A2 ca3e2|f2e2d2 c2B2A2|B4B2 B2d2e2|f2e2B2 B2c2d2|c2A2a2 f2e2c2|B6-B2 d2e2|
f4f2 f4e2|f2a2f2 f2e2d2|e2c2A2 c4a2|f2e2d2 c2B2A2|f4f2 f4e2|f2a2f2 f2e2d2|c2A2a2 f2e2c2|B6-B2 d2e2|
f4f2 f4e2|f2a2f2 f2e2d2|e2c2A2 c4a2|f2e2d2 c2B2A2|B4B2 B2d2e2|f2d2B2 B2c2d2|c2A2a2 f2e2c2|B6B4||
